X: 8240
T: Coradavon Lodge
R: reel
M: 4/4
K: Bminor
|:BBdB cAAc|BBdB f2 ec|BcdB cAAc|dfec BBBf|
BBdB cAAc|BBdB f2 ec|Bcde fdec|dfed BBBc|
d2 Af ddfd|a2 af efec|d2 Af ddfd|cAec BBBc|
d2 Af ddfd|a2 af efec|defd edcA|dfec BBBA:|

